X:1
T:Title
%%score { 1 | 2 }
L:1/8
M:6/8
K:Eb
V:1 treble nm="Grand Piano"
V:2 bass 
V:1
 z3 z2[Q:1/4=100] G | G2 F A2 G | [DG]2 [DF] E2 G | [GB]2 [_G=A] [_Ac]2 [=GB] | [EG]3- [EG]2 [EG] | %5
 [DF]2 [_D=E] [_EG]2 [=DF] | [FA]2 [EG] [DF]2 [DF] | G2 G c2 =A |[M:5/8] [DB]-[DB]- [DB]3 | %9
[M:1/8] [DB] |[M:3/4] [Ac]2 [GB] [FA]2 [FA] | [GB]2 [FA] [EG]2 [EG] | [CG]2 [CF] [DA]2 D | %13
[M:5/8] E-E- E3 |] %14
V:2
 z3 z2 [E,B,E] | [E,B,E]2 [E,A,E] [E,CE]2 [E,B,E] | [B,,B,]2 [B,,A,] [E,G,]2 [E,B,E] | %3
 [E,E]2 [E,E] [E,E]2 [E,E] | [E,B,]3- [E,B,]2 [E,B,] | [B,,B,]2 [B,,B,] [B,,B,]2 [B,,B,] | %6
 [B,,B,]2 [B,,B,] [B,,B,]2 [B,,B,] | [E,B,E]2 [E,B,E] [F,=A,E]2 [F,CE] | %8
[M:5/8] [B,,B,]-[B,,B,]- [B,,B,]3 |[M:1/8] [B,,B,] |[M:3/4] [B,,B,]2 [B,,B,] [B,,B,]2 [B,,B,] | %11
 [B,,B,]2 [B,,B,] [E,B,]2 [E,B,] | [A,,A,]2 [A,,A,] [B,,F,]2 [B,,A,B,] | %13
[M:5/8] [E,G,B,]-[E,G,B,]- [E,G,B,]3 |] %14

